shared/images/iconfont/8-kb-iconfont-attachment-16.svg

<?xml version="1.0" encoding="UTF-8"?>
<svg width="16px" height="16px" viewBox="0 0 16 16" version="1.1" xmlns="http://www.w3.org/2000/svg" xmlns:xlink="http://www.w3.org/1999/xlink">
    <!-- Generator: sketchtool 57.1 (101010) - https://sketch.com -->
    <title>9DC36BFD-E39A-4C9A-AAD3-BBF16BB8DB31</title>
    <desc>Created with sketchtool.</desc>
    <g id="Symbols" stroke="none" stroke-width="1" fill="none" fill-rule="evenodd">
        <g id="8-kb-iconfont-attachment-16">
            <g>
                <rect id="icon-area" opacity="0" x="0" y="0" width="16" height="16"></rect>
                <path d="M13.7632522,2.23704981 C12.9713183,1.44498706 11.8971481,1 10.7770933,1 C9.65703857,1 8.58286837,1.44498706 7.79093449,2.23704981 C7.61224534,2.41525679 7.51179229,2.65723008 7.5117338,2.90959397 C7.5116753,3.16195786 7.61201617,3.40397769 7.79062269,3.58226748 C7.97033513,3.75759909 8.21183085,3.85516014 8.46290064,3.85385881 L8.46321244,3.85385881 C8.71442042,3.85534234 8.95609162,3.7577612 9.13584036,3.58226748 C10.0553429,2.70853874 11.4982202,2.70853874 12.4177227,3.58226748 C13.3238493,4.48871411 13.3238493,5.95801501 12.4177227,6.86446164 L6.86525105,12.4166279 C5.9457485,13.2903566 4.50287122,13.2903566 3.58336868,12.4166279 C2.67724212,11.5101813 2.67724212,10.0408804 3.58336868,9.13443373 L5.94930957,6.76845466 C6.14506824,6.5724615 6.43966346,6.51379087 6.69557411,6.61983104 C6.95148475,6.72587121 7.11824446,6.97571073 7.1180075,7.25272105 C7.11875467,7.43441237 7.04665661,7.60882468 6.917836,7.73695563 L5.22720191,9.42790152 C5.04851276,9.60610849 4.94805971,9.84808178 4.94800122,10.1004457 C4.94794272,10.3528096 5.04828359,10.5948294 5.22689011,10.7731192 C5.60889358,11.1182292 6.19010431,11.1182292 6.57210778,10.7731192 L8.26301548,9.0821733 C9.26762297,8.07081457 9.26489217,6.43738868 8.25690866,5.42939466 C7.24892516,4.42140063 5.61549929,4.41865278 4.60413008,5.42324972 L2.23815102,7.78923515 C1.17063166,8.85596428 0.753463775,10.4112672 1.14385362,11.869041 C1.53424346,13.3268148 2.67285309,14.4654826 4.13060689,14.855947 C5.58836069,15.2464114 7.143685,14.8293231 8.21046871,13.7618583 L13.7629404,8.20968567 C15.4122187,6.56043512 15.4123583,3.88648528 13.7632522,2.23706254 L13.7632522,2.23704981 Z" id="paperclip" fill="#000000"></path>
            </g>
        </g>
    </g>
</svg>

<svg xmlns="http://www.w3.org/2000/svg" width="16" height="16" viewBox="0 0 16 16">
    <path fill="#000" fill-rule="evenodd" d="M13.763 2.237a4.223 4.223 0 0 0-5.972 0 .95.95 0 0 0 0 1.345c.18.176.42.273.672.272a.955.955 0 0 0 .673-.272 2.382 2.382 0 0 1 3.282 0 2.321 2.321 0 0 1 0 3.282l-5.553 5.553a2.382 2.382 0 0 1-3.282 0 2.321 2.321 0 0 1 0-3.283L5.95 6.768a.684.684 0 1 1 .969.969l-1.69 1.69a.95.95 0 0 0-.001 1.346c.382.345.963.345 1.345 0l1.691-1.69a2.587 2.587 0 0 0-3.659-3.66L2.238 7.79a4.223 4.223 0 1 0 5.972 5.973l5.553-5.552a4.223 4.223 0 0 0 0-5.973z"/>
</svg>
